picto/train-left-framed.svg

<svg class="color-immutable" width="30" height="30" viewBox="0 0 30 30" fill="none" xmlns="http://www.w3.org/2000/svg"><path d="M0 0H30V30H0V0Z" fill="#2D327D"/><path d="M25.5 3C26.325 3 27 3.675 27 4.5V25.5C27 26.3251 26.325 27.0001 25.5 27.0001H4.5C3.675 27.0001 3 26.3251 3 25.5V4.5C3 3.675 3.675 3 4.5 3H25.5ZM25.5 2.625H4.5C3.46613 2.625 2.625 3.46613 2.625 4.5V25.5C2.625 26.5339 3.46613 27.375 4.5 27.375H25.5C26.5339 27.375 27.375 26.5339 27.375 25.5V4.5C27.375 3.46613 26.5339 2.625 25.5 2.625Z" fill="white"/><path d="M6.28772 21.8624C6.08064 21.8624 5.91272 21.6943 5.91272 21.4875C5.91272 21.4696 5.91399 21.4519 5.91647 21.4344L6.23582 19.1987L10.125 19.2011V21.8624H6.28772Z" fill="white"/><path d="M15.3657 11.1935L24.0001 11.1936V10.4999H16.9501L19.1626 8.99985L15.0001 6.63728L10.8623 8.99985H10.8375L13.0501 10.4999H8.45437C7.8945 10.4999 7.41982 10.9115 7.34062 11.4658L6.33765 18.4874H24.0001V14.775H15.3657C15.1639 14.775 15.0001 14.6111 15.0001 14.4094C15.0001 14.2075 15.1639 14.0436 15.3657 14.0436H24.0001V13.3499H15.3657C15.1639 13.3499 15.0001 13.1861 15.0001 12.9842C15.0001 12.7824 15.1639 12.6186 15.3657 12.6186H24.0001V11.9249H15.3657C15.1639 11.9249 15.0001 11.7612 15.0001 11.5592C15.0001 11.3575 15.1639 11.1935 15.3657 11.1935ZM10.3501 14.3999C10.3501 14.6069 10.1821 14.775 9.97507 14.775H8.02005C7.81297 14.775 7.64497 14.6069 7.64497 14.3999C7.64497 14.3821 7.64625 14.3644 7.64872 14.3468L8.05327 11.5156C8.0796 11.331 8.23785 11.1936 8.42452 11.1936H9.97507C10.1821 11.1936 10.3501 11.3617 10.3501 11.5685V14.3999ZM14.3198 10.4999L12.1951 9.0594L15.0012 7.45733L17.8139 9.05363L15.6805 10.4999H14.3198V10.4999Z" fill="white"/><path d="M19.2086 21.0207C19.2086 19.9651 18.3518 19.1083 17.2961 19.1083C16.2406 19.1083 15.3838 19.9651 15.3838 21.0207C15.3838 22.0766 16.2406 22.9333 17.2961 22.9333C18.3518 22.9333 19.2086 22.0766 19.2086 21.0207Z" fill="white"/><path d="M14.6999 21.0207C14.6999 19.9651 13.8431 19.1083 12.7873 19.1083C11.7317 19.1083 10.8749 19.9651 10.8749 21.0207C10.8749 22.0766 11.7316 22.9333 12.7873 22.9333C13.843 22.9333 14.6999 22.0766 14.6999 21.0207Z" fill="white"/><path d="M6 6V6.375H24V6H6Z" fill="white"/><path d="M24.0001 24V23.2875H6.00012V24H24.0001Z" fill="white"/><path d="M24 19.3126V19.2H19.875V21.8625H24V19.3126Z" fill="white"/></svg>

<svg class="color-immutable" width="30" height="30" viewBox="0 0 30 30" fill="none" xmlns="http://www.w3.org/2000/svg"><g clip-path="url(#a)"><path d="M0 0h30v30H0V0Z" fill="#2D327D"/><path d="M25.5 3c.825 0 1.5.675 1.5 1.5v21c0 .825-.675 1.5-1.5 1.5h-21c-.825 0-1.5-.675-1.5-1.5v-21C3 3.675 3.675 3 4.5 3h21Zm0-.375h-21A1.877 1.877 0 0 0 2.625 4.5v21c0 1.034.841 1.875 1.875 1.875h21a1.877 1.877 0 0 0 1.875-1.875v-21A1.877 1.877 0 0 0 25.5 2.625Z" fill="#fff"/><path d="M6.288 21.862a.375.375 0 0 1-.372-.428l.32-2.235 3.889.002v2.661H6.288ZM15.366 11.194H24V10.5h-7.05L19.163 9 15 6.637 10.862 9h-.024l2.212 1.5H8.454c-.56 0-1.034.412-1.113.966l-1.003 7.021H24v-3.712h-8.634a.366.366 0 0 1 0-.731H24v-.694h-8.634a.366.366 0 0 1 0-.731H24v-.694h-8.634a.366.366 0 0 1 0-.732ZM10.35 14.4a.375.375 0 0 1-.375.375H8.02a.375.375 0 0 1-.371-.428l.404-2.831a.375.375 0 0 1 .372-.322h1.55c.207 0 .375.168.375.374V14.4Zm3.97-3.9-2.125-1.44 2.806-1.603 2.813 1.597L15.68 10.5H14.32ZM19.209 21.02a1.913 1.913 0 1 0-3.827.002 1.913 1.913 0 0 0 3.827-.001ZM14.7 21.02a1.913 1.913 0 1 0-3.826.002 1.913 1.913 0 0 0 3.826-.001ZM6 6v.375h18V6H6ZM24 24v-.712H6V24h18ZM24 19.313V19.2h-4.125v2.663H24v-2.55Z" fill="#fff"/></g><defs><clipPath id="a"><path fill="#fff" d="M0 0h30v30H0z"/></clipPath></defs></svg>
